packages/nodes-base/nodes/Files/ReadWriteFile/readWriteFile.svg

<svg xmlns="http://www.w3.org/2000/svg" width="512" height="512" fill="none"><g fill="#4A4" clip-path="url(#a)"><path d="M0 12C0 5.373 5.373 0 12 0h147v154c0 6.627 5.373 12 12 12h154v76h-96.438a48 48 0 0 0-42.274 25.264l-57.085 106.143a52 52 0 0 0-6.203 24.63V434H12c-6.627 0-12-5.373-12-12z"/><path d="M325 134v-6.599a12 12 0 0 0-3.505-8.476L206.369 3.525A12 12 0 0 0 197.873 0H191v134z"/><path fill-rule="evenodd" d="M228.563 274a16 16 0 0 0-14.091 8.421L172.211 361H492.64l-47.97-79.283A16 16 0 0 0 430.981 274zM155 409c0-8.837 7.163-16 16-16h325c8.837 0 16 7.163 16 16v87c0 8.837-7.163 16-16 16H171c-8.837 0-16-7.163-16-16zm242 44c0 13.255-10.745 24-24 24s-24-10.745-24-24 10.745-24 24-24 24 10.745 24 24m48 24c13.255 0 24-10.745 24-24s-10.745-24-24-24-24 10.745-24 24 10.745 24 24 24" clip-rule="evenodd"/></g><defs><clipPath id="a"><path fill="#fff" d="M0 0h512v512H0z"/></clipPath></defs></svg>

<svg width="512" height="512" viewBox="0 0 512 512" fill="none" xmlns="http://www.w3.org/2000/svg">
<g clip-path="url(#clip0_1141_1547)">
<path d="M0 12C0 5.37258 5.37258 0 12 0H159V154C159 160.627 164.373 166 171 166H325V242H228.562C210.895 242 194.656 251.705 186.288 267.264L129.203 373.407C125.131 380.978 123 389.44 123 398.037V434H12C5.37257 434 0 428.627 0 422V12Z" fill="#44AA44"/>
<path d="M325 134V127.401C325 124.223 323.74 121.175 321.495 118.925L206.369 3.52481C204.118 1.2682 201.061 0 197.873 0H191V134H325Z" fill="#44AA44"/>
<path fill-rule="evenodd" clip-rule="evenodd" d="M228.563 274C222.674 274 217.261 277.235 214.472 282.421L172.211 361H492.64L444.67 281.717C441.772 276.927 436.58 274 430.981 274H228.563Z" fill="#44AA44"/>
<path fill-rule="evenodd" clip-rule="evenodd" d="M155 409C155 400.163 162.163 393 171 393H496C504.837 393 512 400.163 512 409V496C512 504.837 504.837 512 496 512H171C162.163 512 155 504.837 155 496V409ZM397 453C397 466.255 386.255 477 373 477C359.745 477 349 466.255 349 453C349 439.745 359.745 429 373 429C386.255 429 397 439.745 397 453ZM445 477C458.255 477 469 466.255 469 453C469 439.745 458.255 429 445 429C431.745 429 421 439.745 421 453C421 466.255 431.745 477 445 477Z" fill="#44AA44"/>
</g>
<defs>
<clipPath id="clip0_1141_1547">
<rect width="512" height="512" fill="white"/>
</clipPath>
</defs>
</svg>
